X: 136
T: A Classical
R: reel
M: 4/4
K: Amixolydian
|:EA~A2 EAce|d2BG DGBG|EA~A2 EAce|dGBd cAA^G|
EA~A2 EAce|d2BG DGBG|EDB,D EGBe|1 dBAG EAA^G:|2 dBAG EFAB||
K:C
c2Ac GcEc|~c2ec dfed|~c2Ac GcEG|GEDF ECCB|
~c2Ac GcEc|~c2ec dfed|~c2Bc AGEG|BeeB dBA^G||

